images/ICONOS/VALORES/CALIDAD ICON.svg

<svg width="40" height="52" viewBox="0 0 40 52" fill="none" xmlns="http://www.w3.org/2000/svg">
<path d="M11.3165 51.3137C11.1139 51.044 10.8746 50.7955 10.7128 50.5035C9.72775 48.7241 8.75847 46.9355 7.76422 45.1114C6.5306 45.5506 5.31408 45.982 4.10019 46.4173C3.34397 46.6882 2.58776 46.9618 1.83286 47.2406C1.44883 47.3826 1.06875 47.4865 0.732072 47.1499C0.398022 46.8145 0.492713 46.4476 0.642641 46.0557C2.45098 41.3185 4.24617 36.5773 6.06109 31.8428C6.20707 31.4614 6.17288 31.2746 5.82568 31.005C4.27379 29.8056 3.62279 28.1985 4.00418 26.2678C4.30272 24.7527 3.94632 23.552 2.7732 22.5157C0.633435 20.6284 0.63212 17.2971 2.76925 15.4072C3.94105 14.3709 4.31719 13.1702 3.99892 11.6577C3.41631 8.89984 5.43113 6.19456 8.24819 5.93547C9.74353 5.79738 10.7812 5.09377 11.419 3.72075C12.6895 0.986538 15.8156 0.0146374 18.4446 1.51392C19.6835 2.22016 20.8947 2.21753 22.1349 1.51655C24.8034 0.00806159 27.8848 0.985223 29.1855 3.76152C29.801 5.07405 30.7979 5.77371 32.2327 5.92495C35.2221 6.23928 37.1461 8.81041 36.5662 11.7498C36.2781 13.2109 36.6477 14.3762 37.7748 15.3678C39.9395 17.2721 39.9685 20.6034 37.8142 22.513C36.6424 23.552 36.2781 24.7462 36.578 26.2625C36.962 28.2142 36.2952 29.8266 34.7249 31.0352C34.4146 31.2746 34.3712 31.4482 34.504 31.7954C36.3005 36.4839 38.0825 41.1777 39.8685 45.8702C39.9159 45.9925 40.0105 46.1188 40 46.2371C39.975 46.5436 40.0027 46.946 39.8238 47.1222C39.6449 47.2985 39.203 47.3656 38.944 47.2788C37.4026 46.7685 35.8796 46.2003 34.3514 45.6519C33.8582 45.4757 33.3651 45.2994 32.8377 45.1114C32.743 45.2718 32.647 45.4217 32.5628 45.5769C31.6659 47.2196 30.7781 48.8675 29.8707 50.5035C29.7089 50.7955 29.4709 51.0454 29.267 51.3137C29.0698 51.3137 28.8725 51.3137 28.6752 51.3137C28.4806 51.0217 28.2241 50.7547 28.1018 50.4351C26.4079 46.0254 24.7337 41.6078 23.0516 37.1941C22.9898 37.031 22.9227 36.8048 22.7938 36.743C22.177 36.4458 21.5576 36.1196 20.9 35.946C20.0215 35.7146 19.2021 36.0079 18.3946 36.4103C17.8502 36.6812 17.5648 37.0481 17.357 37.6031C15.7512 41.8879 14.1204 46.1648 12.4804 50.4364C12.3581 50.756 12.1016 51.023 11.907 51.315C11.711 51.3137 11.5137 51.3137 11.3165 51.3137ZM35.1247 10.7831C35.0919 10.5162 35.084 10.2847 35.0327 10.0624C34.7144 8.66706 33.6202 7.6557 32.1867 7.51235C30.0693 7.30061 28.5924 6.259 27.698 4.3152C26.8695 2.51344 24.7942 1.88479 23.0214 2.82381C22.6452 3.0224 22.2665 3.23283 21.8653 3.36434C20.3726 3.85227 18.9654 3.62737 17.6016 2.86195C15.8209 1.86112 13.7206 2.49502 12.8868 4.30994C11.9846 6.27347 10.4892 7.30192 8.35209 7.51761C6.43854 7.71094 5.14311 9.54427 5.54949 11.4236C5.98875 13.4569 5.44165 15.1389 3.88056 16.5199C2.35892 17.8666 2.3655 20.0629 3.89502 21.4149C5.44296 22.784 5.97429 24.4542 5.5679 26.4703C5.47584 26.9241 5.47321 27.4291 5.56922 27.8815C5.88223 29.365 6.95802 30.2343 8.71507 30.4605C10.6378 30.7078 11.9859 31.7073 12.8026 33.4565C13.7219 35.4239 15.7709 36.092 17.6687 35.0333C19.4231 34.0535 21.1538 34.0627 22.9201 35.0202C23.3962 35.2793 23.9591 35.4607 24.497 35.5068C25.9318 35.6291 27.1444 34.8453 27.7796 33.4591C28.4832 31.923 29.6366 30.9406 31.2819 30.5565C31.6803 30.4632 32.0972 30.4579 32.4984 30.3724C34.2909 29.9936 35.4114 28.2721 35.0274 26.473C34.6013 24.4818 35.1168 22.8103 36.6477 21.4517C36.9028 21.2255 37.1409 20.9625 37.3237 20.6758C38.2127 19.283 37.9194 17.5996 36.6017 16.4199C35.1721 15.1389 34.6355 13.5581 34.9866 11.6722C35.0432 11.3658 35.0827 11.058 35.1247 10.7831ZM15.8656 37.1284C15.7117 37.1139 15.6144 37.1073 15.5184 37.0955C13.6653 36.8838 12.2384 35.9986 11.4664 34.2876C10.7194 32.6332 9.44762 31.9664 7.6932 31.9585C6.02032 36.359 4.34744 40.7595 2.63773 45.256C2.93496 45.1561 3.10461 45.1035 3.27295 45.0417C4.73936 44.5143 6.20444 43.9817 7.67216 43.4582C8.30343 43.2333 8.59934 43.3477 8.9255 43.9409C9.5502 45.0772 10.167 46.2187 10.7878 47.3563C11.0048 47.7535 11.2231 48.1494 11.4861 48.6307C12.9617 44.7563 14.4018 40.9726 15.8656 37.1284ZM32.8798 31.9309C32.6417 31.9559 32.4642 31.9795 32.284 31.994C30.8071 32.1137 29.7655 32.8357 29.1671 34.2048C29.0237 34.5322 28.8357 34.8492 28.62 35.1359C27.6612 36.4142 26.3421 37.0232 24.7179 37.1271C26.1738 40.9528 27.6178 44.7471 29.0908 48.6176C29.2131 48.4098 29.296 48.2743 29.3722 48.1349C30.1271 46.7514 30.8794 45.3665 31.6356 43.9843C31.9934 43.3293 32.2564 43.2281 32.9574 43.4779C34.4409 44.008 35.9217 44.5432 37.4039 45.0732C37.5499 45.1258 37.6998 45.164 37.9392 45.235C36.2321 40.7477 34.5605 36.3524 32.8798 31.9309Z" fill="url(#paint0_linear_1_2797)"/>
<path d="M8.45508 18.9555C8.45771 12.4152 13.7709 7.11773 20.3191 7.12562C26.8318 7.13351 32.1384 12.4546 32.1266 18.9633C32.1148 25.5063 26.812 30.7932 20.2586 30.7971C13.7617 30.8011 8.45245 25.4747 8.45508 18.9555ZM10.0346 19.0041C10.0201 24.6001 14.6363 29.1992 20.2849 29.2189C25.8967 29.2374 30.5352 24.6277 30.5484 19.016C30.5629 13.3845 26.0019 8.73011 20.4454 8.70381C14.6495 8.67619 10.049 13.2279 10.0346 19.0041Z" fill="url(#paint1_linear_1_2797)"/>
<path d="M15.704 24.2451C15.8973 23.1193 16.1104 21.9567 16.2827 20.7875C16.3116 20.5876 16.2274 20.2996 16.088 20.1563C15.3213 19.3672 14.5256 18.6057 13.7286 17.8455C13.4301 17.5615 13.2526 17.2498 13.4012 16.8394C13.5445 16.441 13.897 16.3555 14.2705 16.3029C15.3437 16.1529 16.4181 16.0096 17.4847 15.8241C17.6833 15.79 17.924 15.615 18.0187 15.4375C18.525 14.4814 18.9985 13.5068 19.468 12.531C19.6376 12.1798 19.8625 11.9142 20.2729 11.9063C20.7082 11.8984 20.9436 12.1759 21.1198 12.5441C21.5893 13.52 22.0641 14.4932 22.5678 15.452C22.6546 15.6177 22.8795 15.7821 23.0636 15.8136C24.1473 16.0004 25.2376 16.149 26.3252 16.3055C26.6987 16.3594 27.0459 16.4541 27.1827 16.8565C27.3247 17.2708 27.1354 17.5786 26.8408 17.86C26.0569 18.6083 25.2902 19.3764 24.5024 20.1221C24.2894 20.3233 24.221 20.5087 24.2788 20.8099C24.4879 21.9054 24.6879 23.0049 24.8273 24.1123C24.8628 24.3911 24.7365 24.7606 24.5537 24.979C24.3051 25.2762 23.9369 25.1828 23.6042 25.0053C22.6494 24.495 21.6801 24.0097 20.7319 23.4862C20.4254 23.3166 20.1913 23.3008 19.8757 23.4744C18.8998 24.0149 17.9082 24.5292 16.9126 25.0316C16.2774 25.3498 15.6606 24.9592 15.704 24.2451ZM17.5373 22.9207C18.2857 22.5288 18.9906 22.1829 19.6718 21.7963C20.1058 21.5503 20.4912 21.5582 20.9212 21.8002C21.5999 22.1803 22.2982 22.5249 23.0479 22.9168C22.9111 22.1264 22.8216 21.4083 22.6559 20.71C22.5086 20.0905 22.6757 19.6513 23.1439 19.2304C23.6739 18.7543 24.1355 18.2033 24.6405 17.6693C24.0829 17.5838 23.5174 17.4273 22.9518 17.4247C21.9523 17.4207 21.3921 16.9407 21.0685 16.0333C20.8818 15.5085 20.5806 15.0245 20.29 14.4419C19.881 15.2705 19.5219 15.9872 19.1734 16.7092C19.0024 17.063 18.7473 17.2603 18.3448 17.3116C17.5373 17.4142 16.7338 17.5496 15.9592 17.668C16.5234 18.2638 17.0665 18.8516 17.6268 19.4224C17.9122 19.7131 18.0463 20.0155 17.9608 20.4377C17.7991 21.2373 17.6833 22.0488 17.5373 22.9207Z" fill="url(#paint2_linear_1_2797)"/>
<defs>
<linearGradient id="paint0_linear_1_2797" x1="1.31187" y1="50.3797" x2="44.0307" y2="22.975" gradientUnits="userSpaceOnUse">
<stop stop-color="#1723FF"/>
<stop offset="1" stop-color="#30E35E"/>
</linearGradient>
<linearGradient id="paint1_linear_1_2797" x1="8.93816" y1="30.3588" x2="30.5407" y2="12.637" gradientUnits="userSpaceOnUse">
<stop stop-color="#1723FF"/>
<stop offset="1" stop-color="#30E35E"/>
</linearGradient>
<linearGradient id="paint2_linear_1_2797" x1="13.631" y1="24.9254" x2="25.8325" y2="14.4492" gradientUnits="userSpaceOnUse">
<stop stop-color="#1723FF"/>
<stop offset="1" stop-color="#30E35E"/>
</linearGradient>
</defs>
</svg>

<svg xmlns="http://www.w3.org/2000/svg" width="40" height="52" fill="none"><path fill="url(#a)" d="M11.316 51.314c-.202-.27-.441-.519-.603-.81-.985-1.78-1.955-3.569-2.949-5.393-1.233.44-2.45.871-3.664 1.306-.756.271-1.512.545-2.267.824-.384.142-.764.245-1.1-.091-.335-.335-.24-.702-.09-1.094 1.808-4.737 3.603-9.479 5.418-14.213.146-.382.112-.568-.235-.838-1.552-1.2-2.203-2.806-1.822-4.737.299-1.515-.058-2.716-1.23-3.752a4.74 4.74 0 0 1-.005-7.109c1.172-1.036 1.548-2.237 1.23-3.75C3.416 8.9 5.43 6.196 8.249 5.936c1.495-.138 2.532-.841 3.17-2.214 1.27-2.734 4.397-3.706 7.026-2.207 1.238.706 2.45.704 3.69.003 2.668-1.509 5.75-.532 7.05 2.245.616 1.312 1.613 2.012 3.048 2.163 2.99.314 4.913 2.885 4.333 5.825-.288 1.46.082 2.626 1.209 3.618 2.165 1.904 2.194 5.235.04 7.145-1.173 1.039-1.537 2.233-1.237 3.75.384 1.951-.283 3.564-1.853 4.772-.31.24-.354.413-.221.76 1.797 4.689 3.579 9.383 5.364 14.075.048.123.142.249.132.367-.025.307.003.709-.176.885-.18.176-.621.244-.88.157-1.541-.51-3.064-1.079-4.593-1.627-.493-.176-.986-.353-1.513-.54-.095.16-.191.31-.275.465-.897 1.643-1.785 3.29-2.692 4.927-.162.291-.4.541-.604.81h-.592c-.194-.292-.45-.56-.573-.879-1.694-4.41-3.368-8.827-5.05-13.24-.062-.164-.13-.39-.258-.452-.617-.297-1.236-.623-1.894-.797-.878-.231-1.698.062-2.505.464-.545.271-.83.638-1.038 1.193a1713.797 1713.797 0 0 1-4.877 12.833c-.122.32-.378.587-.573.879l-.59-.001Zm23.809-40.53c-.033-.268-.041-.5-.092-.722-.319-1.395-1.413-2.406-2.846-2.55-2.118-.211-3.595-1.253-4.489-3.197-.829-1.802-2.904-2.43-4.677-1.491-.376.198-.755.409-1.156.54-1.492.488-2.9.263-4.263-.502-1.781-1-3.881-.367-4.715 1.448-.902 1.963-2.398 2.992-4.535 3.208-1.913.193-3.209 2.026-2.803 3.906.44 2.033-.107 3.715-1.668 5.096-1.522 1.347-1.515 3.543.014 4.895 1.548 1.369 2.08 3.04 1.673 5.055-.092.454-.095.96.001 1.412.313 1.483 1.389 2.352 3.146 2.578 1.923.248 3.27 1.247 4.088 2.996.919 1.968 2.968 2.636 4.866 1.577 1.754-.98 3.485-.97 5.251-.013.476.26 1.04.44 1.577.487 1.435.122 2.647-.662 3.283-2.048.703-1.536 1.857-2.518 3.502-2.903.398-.093.815-.098 1.216-.184a3.258 3.258 0 0 0 2.53-3.899c-.427-1.991.089-3.663 1.62-5.021.255-.227.493-.49.676-.776.889-1.393.595-3.076-.722-4.256-1.43-1.281-1.966-2.862-1.615-4.748.056-.306.096-.614.138-.889Zm-19.26 26.344c-.153-.014-.25-.02-.347-.032-1.853-.212-3.28-1.097-4.052-2.808-.747-1.655-2.018-2.322-3.773-2.33L2.638 45.257c.297-.1.467-.153.635-.214 1.466-.528 2.931-1.06 4.4-1.584.63-.225.926-.11 1.252.483.625 1.136 1.242 2.278 1.863 3.415l.698 1.275 4.38-11.503Zm17.015-5.197c-.238.025-.416.049-.596.063-1.477.12-2.518.842-3.117 2.21a4.702 4.702 0 0 1-.547.932c-.959 1.278-2.278 1.887-3.902 1.991l4.373 11.49c.122-.207.205-.343.281-.482.755-1.384 1.507-2.768 2.264-4.15.357-.656.62-.757 1.321-.507 1.484.53 2.965 1.065 4.447 1.595.146.053.296.091.535.162l-5.06-13.304Z"/><path fill="url(#b)" d="M8.455 18.956c.003-6.54 5.316-11.838 11.864-11.83 6.513.008 11.82 5.329 11.808 11.837-.012 6.543-5.315 11.83-11.868 11.834-6.497.004-11.807-5.322-11.804-11.841Zm1.58.048C10.02 24.6 14.636 29.2 20.285 29.22c5.612.018 10.25-4.591 10.263-10.203.015-5.631-4.546-10.286-10.103-10.312-5.796-.028-10.396 4.524-10.41 10.3Z"/><path fill="url(#c)" d="M15.704 24.245c.193-1.126.406-2.288.579-3.457.029-.2-.056-.488-.195-.632a86.882 86.882 0 0 0-2.36-2.31c-.298-.285-.475-.596-.327-1.007.143-.398.496-.483.87-.536 1.073-.15 2.147-.293 3.214-.479a.851.851 0 0 0 .534-.386c.506-.957.98-1.931 1.449-2.907.17-.351.395-.617.805-.625.435-.008.67.27.847.638a92 92 0 0 0 1.448 2.908c.087.166.311.33.496.362 1.083.186 2.174.335 3.261.491.374.054.72.15.858.552.142.414-.048.722-.342 1.003-.784.748-1.55 1.516-2.339 2.262-.213.201-.281.387-.223.688.209 1.095.409 2.195.548 3.302.036.28-.09.649-.273.867-.249.297-.617.204-.95.026-.955-.51-1.924-.995-2.872-1.519-.307-.17-.54-.185-.856-.012a87.088 87.088 0 0 1-2.963 1.558c-.636.318-1.252-.073-1.209-.787Zm1.833-1.324c.749-.392 1.454-.738 2.135-1.125.434-.246.82-.238 1.25.004.678.38 1.376.725 2.126 1.117-.137-.79-.226-1.509-.392-2.207-.147-.62.02-1.059.488-1.48.53-.476.992-1.027 1.497-1.56-.558-.086-1.124-.243-1.69-.245-.999-.004-1.559-.484-1.883-1.392-.186-.525-.487-1.009-.778-1.591-.409.829-.768 1.545-1.117 2.267-.17.354-.426.551-.828.603-.808.102-1.611.238-2.386.356.564.596 1.108 1.184 1.668 1.754.285.291.42.593.334 1.016-.162.8-.278 1.61-.424 2.483Z"/><defs><linearGradient id="a" x1="1.312" x2="44.031" y1="50.38" y2="22.975" gradientUnits="userSpaceOnUse"><stop stop-color="#1723FF"/><stop offset="1" stop-color="#30E35E"/></linearGradient><linearGradient id="b" x1="8.938" x2="30.541" y1="30.359" y2="12.637" gradientUnits="userSpaceOnUse"><stop stop-color="#1723FF"/><stop offset="1" stop-color="#30E35E"/></linearGradient><linearGradient id="c" x1="13.631" x2="25.832" y1="24.925" y2="14.449" gradientUnits="userSpaceOnUse"><stop stop-color="#1723FF"/><stop offset="1" stop-color="#30E35E"/></linearGradient></defs></svg>
